X:1
T:James Gibb editions
T:Herzlich lieb hab ich dich, SWV 348 - Schütz
T:#
%%score 1 2 3 4
L:1/8
Q:1/4=100
M:4/4
K:C
V:1 treble nm="Violin I" snm="Vn I"
V:2 treble nm="Violin II" snm="Vn II"
V:3 treble nm="Alto" snm="A"
V:4 bass nm="Continuo"
V:1
 z8 | z8 | z8 | z8 |[M:4/4] z8 | z8 | z8 |[M:4/4][K:treble] z8 | z8 | z8 | e3 d c2 e2 | d2 c2 B4 | %12
 A4 z4 | z4 a3 g | f2 a2 g2 f2 | e4 d4 | z2 a2 ^g2 aa | ff z a e2 aa | d2 z2 z4 | z8 | %20
 z2 z e d2 z e | c2 ee B2 ee | A2 z2 z4 | z8 | z2 dd ^cc d2 | B2 z d AAdd | GG z2 z4 | z8 | %28
 z2 g2 g2 g2 | f2 gg ^g2 aa | ^f2 a4 a2 | b8 | z2 b4 b2 | c'4 a4- | a4 ^g4 | a8 || %36
 ^c3"^Symphonia" d e2 f2 | eaga faea | d3 e f2 g2 | e4 z4 | f3 g a2 b2 | ^gbab =gb^fb | eede ceBe | %43
 A2 ab c'2 a2 | b2 c'4 b2 | c'4 z4 | z cBc AcGc | Faga faea | d3 e fg a2- | a2 ^g^f g4 | a8 || z8 | %52
 z8 | z8 |[M:4/4] z8 | z8 | z8 |[M:4/4] z8 | z8 | z8 | z8 |[M:4/4] z8 | z8 | z8 | z8 | z8 | z8 | %67
[M:4/4] z8 | z8 | z8 | z8 | z8 | z8 |[M:4/4] z8 | z8 | z8 | z8 | z8 | e6 e2 | f8 | e4 z2 A2 | %81
 cdcd e2 f2- | f2 e2 f4 | z2 A2 ABAB | ^c2 d4 c2 | d4 z2 d2 | d4 z2 e2 | e4 f4 | e4 e4 | e8 || %90
[M:3/2][Q:1/4=200] z12 | z12 | z4 c'4 a2 f2 | %93
[M:3/2][Q:1/4=200][Q:1/4=200][Q:1/4=200][Q:1/4=200] _b4 g2 e2 a4 | f4 _b2 a2 g4 | f4 z4 z4 | %96
 a4 a4 ^g4 | a4 z4 z4 | z12 | z4 c2 d2 e2 f2 | g2 f2 e6 de | d4 z4 z4 | c4 d4 c4 | c4 z4 z4 | %104
 g4 g4 ^f4 | g2 e2 =f2 g2 a2 b2 | c'2 b2 a8 | g4 z4 z4 | a4 a4 ^g4 | a2 ^f2 g2 a2 b2 c'2 | %110
 d'2 c'2 b8 | a4 z4 z4 | d4 d4 ^c4 | d2 e2 f2 g2 a2 g2 | f4 e2 d2 e4 | %115
[Q:1/4=195] a6[Q:1/4=190] g2[Q:1/4=186] f4 |[Q:1/4=180] e6[Q:1/4=176] d[Q:1/4=175]c[Q:1/4=172] d4 | %117
[Q:1/4=170] !fermata!e8 |] %118
V:2
 z8 | z8 | z8 | z8 |[M:4/4] z8 | z8 | z8 |[M:4/4][K:treble] z8 | z8 | z8 | c3 B A2 c2 | B2 A4 ^G2 | %12
 A4 z4 | e3 d c2 a2- | ag f2 e2 d2- | d2 ^c2 d4 | z8 | z8 | z2 gg ^ff g2 | e2 z g ddgg | cc z2 z4 | %21
 z8 | z2 a2 ^g2 aa | ff z a e2 aa | d2 z2 z4 | z8 | z2 gg ^ff g2 | e2 z g ddgg | cc c2 B2 c2 | %29
 A2 ce e2 ee | d2 ^f4 f2 | g8 | z2 ^g4"^7" g2 | a4 e4 | e8 | e8 || A3 B ^c2 d2 | ^c4 z4 | %38
 _B3 =c d2 e2 | ^cede =ce=Be | A3 B c2 d2 | B4 z4 | z gfg egdg | c3 d e2 f2- | f2 e2 d4 | %45
 cede ceBe | A2 z2 z4 | z fef dfcf | B3 c dcBA | B8 | A8 || z8 | z8 | z8 |[M:4/4] z8 | z8 | z8 | %57
[M:4/4] z8 | z8 | z8 | z8 |[M:4/4] z8 | z8 | z8 | z8 | z8 | z8 |[M:4/4] z8 | z8 | z8 | z8 | z8 | %72
 z8 |[M:4/4] z8 | z8 | z8 | z8 | c6 c2 | B8 | A8- | A4 z2 E2 | ABAB c2 d2 | c4 c4 | z2 F2 FGFG | %84
 A3 _B A4 | A4 z2 A2 | =B4 z2 B2 | c4 d4 | B4 B4 | ^c8 ||[M:3/2] z12 | z12 | g4 e2 c2 f4 | %93
[M:3/2] d2 _B2 e4 c2 A2- | A2 d4 f4 e2 | f4 z4 z4 | e4 f4 e4 | e4 z4 z4 | z12 | F2 G2 A2 B2 c2 d2 | %100
 e2 d2 d4 ^c4 | d4 z4 z4 | f4 f4 e4 | f4 z4 z4 | z4 z4 d2 c2 | B2 c2 d2- e2 f2 d2 | e2 g2- d8 | %107
 d4 z4 z4 | z4 z4 e2 d2 | c2 d2 e2 f2 g2 e2 | f2 a2 e8 | e4 z4 z4 | z4 z4 z4 | d4 d4 ^c4 | %114
 d2 e2 f2 g2 a2 g2 | f6 g2 a4 | z4 A6 B2 | !fermata!^c8 |] %118
V:3
"^Herzlich lieb hab ich dich, SWV 348""^Heinrich Schütz\n(1585-1672)""^Psalm 18:1-6" E3 D C2 E2 | %1
w: Herz- lich lieb hab|
 D2 C2 B,4 | A,2 z A ^G2 AA | FF z A E2 AA | D2 GG ^FF G2 | E2 z G DDGG | CC z E D2 z E | %7
w: ich dich, o|Herr, o Herr mei- ne|Stär- ke, mein Fels, mei- ne|Burg, mein Er- ret- ter, mein|Gott, mein Hort, auf den ich|trau- e, mein Schild und|
 C2 EE B,2 EE | A,2 D3 C C2 | B,6 B,2 | A,4 z4 | z4 E3 D | C2 E2 D2 C2 | B,4 A,4 | z8 | %15
w: Horn, mei- nes Heils und mein|Schutz, herz- lich lieb|hab ich|dich,|herz- lich|lieb hab ich dich,|o Herr,||
 A3 G F2 A2 | G2 F2 E4 | D4 z4 | z8 | z8 | z8 | z2 A2 ^G2 AA | FF z A E2 AA | D2 z2 z4 | z8 | %25
w: herz- lich lieb hab|ich dich, o|Herr,||||o Herr mei- ne|Stär- ke, mein Fels, mei- ne|Burg,||
 z2 GG ^FF G2 | E2 z G DDGG | CC z2 z4 | z2 E2 D2 E2 | C2 EE B,2 EE | A,2 D4 C2 | B,8 | z2 E4 D2 | %33
w: mein Er- ret- ter, mein|Gott, mein Hort, auf den ich|trau- e,|mein Schild und|Horn, mei- nes Heils und mein|Schutz, herz- lich|lieb,|herz- lich|
 C8 | B,4 B,4 | A,8 || z8 | z8 | z8 | z8 | z8 |[M:4/4] z8 | z8 | z8 | z8 | z8 | z8 | z8 | %48
w: lieb|hab ich|dich.|||||||||||||
[M:4/4] z8 | z8 | z8 || z2 E2 CDEF | D2 C2 z2 G2 | EFGA ^F2 E2 | z2 GE D2 C2 | z2 z B, ED/C/ DB, | %56
w: |||Ich will den Her- ren|sin- gen, ich|will den Her- ren sin- gen|und an- ru- fen,|so werd ich von mei- nen|
 CB,/A,/ B,B,/G/ AG/F/ GE | FE/D/ EE/C/ DB, CD/C/ | B,4 A,4 | z2 C4 B,>A, | C3 C C2 z C | %61
w: Fein- den er- lö- set, so werd ich von mei- nen|Fein- den er- lö- set, von mei- nen Fein- den er-|lö- set.|Denn es um-|fin- gen mich des|
 B,2 ^F,2 (G,3 A, | B,A, A,G,) A,4 | A,A,A,B, C3 C | B,2 z D G>G ^F2 | G2 z2 z2 E2 | ^G,2 G,2 A,4 | %67
w: To- des Ban\- *|* * * * de,|und die Bä- che Be- li-|al er- schre- cket en|mich, der|Höl- len Ban-|
 ^G,2 A,2 B,4- | B,4 A,4 | B,2 B,B, C2 ^C2 | D4 z2 EG | F3 A E4 | D2 A,A, _B,2 =B,2 | C4 z2 DF | %74
w: de um- fin\-|* gen|mich, und des To- des|Strick ü- ber-|wäl- ti- get|mich, und des To- des|Strick ü- ber-|
 E3 G D2 B,D | C3 E B,4 | A,8 | z4 E4- | E2 E2 (D4- | D4 ^C2 B,2) | C4 z2 =C2 | EFE-F G4- | %82
w: wäl- tí- get, ü- ber-|wäl- ti- get|mich.|Wenn|* mir angst||ist, so|ru- fe ich den Her\-|
 G2 G2 A4 | z2 C2 CDCD | E6 E2 | ^F4 z2 F2 | G4 z2 ^G2 | A4 A2 (A2- | A2 ^G^F) G4 | A8 || %90
w: * ren an,|so ru- fe ich den|Her- ren|an und|schrei, und|schrei zu mei\-|* * * nem|Gott,|
[M:3/2] A4 ^F2 D2 G4 | E2 C2 =F4 D4 | _B2 A2 G4 F4 |[M:3/2] z12 | z12 | A4 A4 ^G4 | A4 z4 z4 | %97
w: so hö- ret er|mei- ne Stimm von|sei- nem Tem- pel,|||und mein Ge-|schrei|
 z4 C2 D2 E2 F2 | G2 F2 E8 | D4 z4 z4 | z4 z4 z4 | F4 F4 E4 | F4 z4 z4 | z4 C2 D2 E2 F2 | %104
w: kömmt für ihn zu|sei- nen Oh-|ren,||und mein Ge-|schrei|kömmt für ihn zu|
 G2 E2 A8 | G4 z4 z4 | G4 G4 ^F4 | G4 G,2 A,2 B,2 C2 | D2 C2 B,8 | A,4 z4 z4 | A4 A4 ^G4 | %111
w: sei- nen Oh-|ren,|und mein Ge-|schrei kömmt für ihn zu|sei- nen Oh-|ren,|und mein Ge-|
 A4 C2 D2 E2 F2 | G2 F2 E8 | D4 z4 z4 | D4 D4 ^C4 | D4 D2 E2 F2 G2 | A2 G2 F8 | !fermata!E8 |] %118
w: schrei kömmt für ihn zu|sei- nen Oh-|ren,|und mein Ge-|schrei kömmt für ihn zu|sei- nen Oh-|ren.|
V:4
 A,,2 ^G,,2 A,,2 C,2 | B,,2 A,,2 E,4 | A,,4 E,2 ^C,2 | D,2 D,,2 A,,2 ^F,,2 | G,,4 D,2 B,,2 | %5
w: ||||* * 6|
w: |||||
 C,2 C,,2 G,,2 E,,2 | F,,2 C,2 G,2 E,2 | A,2 A,,2 E,2 ^C,2 | D,2 B,,2 C,3 D, | x4- x4 | %10
w: ||||4|
w: |||||
 A,,4 A,,2 A,,2 | B,,2 C,2 x2- x2 | A,,4 D,4 | E,4 A,,4 | D,4 E,2 F,2 | x2- x2 D,2 D2 | %16
w: |* 6 4|||* * 6|4 * *|
w: ||||||
 E2 x2- x2 ^C2 |"^i" D2 D,2 A,2 ^F,2 | G,2 E,2 D,2 G,2 | C2 C,2 G,2 E,2 | F,2 C,2 G,2 C2 | %21
w: |||||
w: |||||
 A,2 A,,2 E,2 ^C,2 | D,2 D2 E2 A,2 | D2 D,2 A,2 ^F,2 | G,2[K:treble] x2- x2 ^F2 | %25
w: ||||
w: ||||
 G2[K:bass] G,,2 D,2 B,,2 | C,2 C2 D2 G,2 | C2 C,2 G,2 E,2 | F,2 C,2 G,2 C,2 | F,2 C,2 E,2 ^C,2 | %30
w: ||||* * * 6|
w: |||||
 D,2 D,4 D,2 | G,8 | E,6 E,2 | A,4 A,,4 | x4- x4 | A,,8 || A,6 D,2 | A,4 D2 C2 | _B,6 G,2 | %39
w: * * 7||* 7||4|||* * 6|* 6|
w: |||||||||
 A,4 A,2 G,2 | F,6 D,2 | E,4 E,2 D,2 | C,6 G,E, | A,6 F,2 | x2- x4 x2 | C2 B,2 A,2 G,2 | %46
w: * * 6|* 6|* * 6|||3|* * * 6|
w: |||||||
 F,2 G,2 F,2 E,2 | D,6 A,F, | G,4 D,2 F,2 | E,2 D,2 E,4 | A,,8 || A,2 ^G,2 A,3 F, | %52
w: |||4 * *|||
w: ||||||
 =G,2 C,2 C2 B,2 | C3 A, B,2 E,2 | F,2 C,2 G,2 C,2 | G,A,B,G, C2 B,2 | A,2 G,2 F,2 E,2 | %57
w: |||||
w: |||||
 D,2 C,2 B,,2 A,,2 | E,4 A,,4 | F,8 | F,6 F,2 | G,2 D,2 E,4- | E,4 D,4 | x2- x2 E,2 ^F,2 | %64
w: ||||||5 6 *|
w: |||||||
 G,F,E,D, C,2 D,2 | G,,4 C,4 | E,4 F,4- | F,4 E,4 | x4- x4 | x4- x2 E,E, | F,2 ^F,2 x2- x2 | %71
w: ||||9|* 6 *|6 * 5|
w: |||||||
 x2- x2 x2 x2 | D,4- D,2 D,D, | _E,2 =E,2 x2- x2 | x2- x2 x2- x2 | A,,4 D,2 E,2 | A,,8 | A,6 A,2 | %78
w: 6|* 6 6 *|6 6 5|6 4||||
w: |||3 *||||
 x4- x4 | A,8 | A,4 z2 A,2 | A,3 D C2 _B,2 | x2- x2 F,4 | z2 F,4 x-x | A,2 ^G,2 x2- x2 | %85
w: 6|6||* 6 * *|4 *|* 5|* * 4|
w: |4||||||
 D,4 z2 D,2 | G,4 z2 E,2 | A,4- D,4 | x4- x4 | A,,8 ||[M:3/2] D,6 D,2 B,,4 | C,4 A,,4 _B,,4 | %92
w: |||4||* * 6|* 6 *|
w: |||||||
 G,,4 C,4 F,,4 |[M:3/2] G,,4 C,4 A,,4 | D,4 _B,,4 C,4 | F,4 D,4 E,4 | A,4 D,4- E,4 | %97
w: |||||
w: |||||
 A,6 F,2 E,2 D,2 | C,2 D,2 A,8 | D,4 C,2 B,,2 A,,4 | G,,4 x4- x4 | D,4 _B,,4 C,4 | F,4 _B,,4 C,4 | %103
w: * 6 * *||* 6 6 *|5 4|||
w: ||||||
 F,4 E,2 D,2 C,4 | E,4 x4- x4 | G,4 F,2 E,2 D,4 | C,4 x4- x4 | G,8 D,4- | D,4 x4- x4 | %109
w: * 6 * *|* 4|5 6 * *|* 4|* 6|5 4|
w: ||||||
 x2- x2 G,2 F,2 E,4 | D,4 x4- x4 | A,8 G,4- | G,4 x4- x4 | D,4 _B,4 A,4 | D8 ^C4 | D8 D,4 | %116
w: 5 6 * *|* 4|* 6|5 4||||
w: |||||||
 ^C,4 D,8 |"^s" !fermata!A,,8 |] %118
w: ||
w: ||

